src/assets/outline/Verify.svg

<svg width="24" height="24" viewBox="0 0 24 24"  xmlns="http://www.w3.org/2000/svg">
<path d="M10.7901 15.1703C10.5901 15.1703 10.4001 15.0903 10.2601 14.9503L7.84006 12.5303C7.55006 12.2403 7.55006 11.7603 7.84006 11.4703C8.13006 11.1803 8.61006 11.1803 8.90006 11.4703L10.7901 13.3603L15.0901 9.06027C15.3801 8.77027 15.8601 8.77027 16.1501 9.06027C16.4401 9.35027 16.4401 9.83027 16.1501 10.1203L11.3201 14.9503C11.1801 15.0903 10.9901 15.1703 10.7901 15.1703Z" />
<path d="M11.9999 22.75C11.3699 22.75 10.7399 22.54 10.2499 22.12L8.66988 20.76C8.50988 20.62 8.10988 20.48 7.89988 20.48H6.17988C4.69988 20.48 3.49988 19.28 3.49988 17.8V16.09C3.49988 15.88 3.35988 15.49 3.21988 15.33L1.86988 13.74C1.04988 12.77 1.04988 11.24 1.86988 10.27L3.21988 8.68C3.35988 8.52 3.49988 8.13 3.49988 7.92V6.2C3.49988 4.72 4.69988 3.52 6.17988 3.52H7.90988C8.11988 3.52 8.51988 3.37 8.67988 3.24L10.2599 1.88C11.2399 1.04 12.7699 1.04 13.7499 1.88L15.3299 3.24C15.4899 3.38 15.8899 3.52 16.0999 3.52H17.7999C19.2799 3.52 20.4799 4.72 20.4799 6.2V7.9C20.4799 8.11 20.6299 8.51 20.7699 8.67L22.1299 10.25C22.9699 11.23 22.9699 12.76 22.1299 13.74L20.7699 15.32C20.6299 15.48 20.4799 15.88 20.4799 16.09V17.79C20.4799 19.27 19.2799 20.47 17.7999 20.47H16.0999C15.8899 20.47 15.4899 20.62 15.3299 20.75L13.7499 22.11C13.2599 22.54 12.6299 22.75 11.9999 22.75ZM6.17988 5.02C5.52988 5.02 4.99988 5.55 4.99988 6.2V7.91C4.99988 8.48 4.72988 9.21 4.35988 9.64L3.00988 11.23C2.65988 11.64 2.65988 12.35 3.00988 12.76L4.35988 14.35C4.72988 14.79 4.99988 15.51 4.99988 16.08V17.79C4.99988 18.44 5.52988 18.97 6.17988 18.97H7.90988C8.48988 18.97 9.21988 19.24 9.65988 19.62L11.2399 20.98C11.6499 21.33 12.3699 21.33 12.7799 20.98L14.3599 19.62C14.7999 19.25 15.5299 18.97 16.1099 18.97H17.8099C18.4599 18.97 18.9899 18.44 18.9899 17.79V16.09C18.9899 15.51 19.2599 14.78 19.6399 14.34L20.9999 12.76C21.3499 12.35 21.3499 11.63 20.9999 11.22L19.6399 9.64C19.2599 9.2 18.9899 8.47 18.9899 7.89V6.2C18.9899 5.55 18.4599 5.02 17.8099 5.02H16.1099C15.5299 5.02 14.7999 4.75 14.3599 4.37L12.7799 3.01C12.3699 2.66 11.6499 2.66 11.2399 3.01L9.65988 4.38C9.21988 4.75 8.47988 5.02 7.90988 5.02H6.17988Z" />
</svg>

<?xml version="1.0" encoding="UTF-8"?>
<svg width="24" height="24" viewBox="0 0 24 24" xmlns="http://www.w3.org/2000/svg">
 <path d="m10.79 15.17c-0.2 0-0.39-0.08-0.53-0.22l-2.42-2.42c-0.29-0.29-0.29-0.77 0-1.06s0.77-0.29 1.06 0l1.89 1.89 4.3-4.3c0.29-0.29 0.77-0.29 1.06 0s0.29 0.77 0 1.06l-4.83 4.83c-0.14 0.14-0.33 0.22-0.53 0.22z"/>
 <path d="m12 22.75c-0.63 0-1.26-0.21-1.75-0.63l-1.58-1.36c-0.16-0.14-0.56-0.28-0.77-0.28h-1.72c-1.48 0-2.68-1.2-2.68-2.68v-1.71c0-0.21-0.14-0.6-0.28-0.76l-1.35-1.59c-0.82-0.97-0.82-2.5 0-3.47l1.35-1.59c0.14-0.16 0.28-0.55 0.28-0.76v-1.72c0-1.48 1.2-2.68 2.68-2.68h1.73c0.21 0 0.61-0.15 0.77-0.28l1.58-1.36c0.98-0.84 2.51-0.84 3.49 0l1.58 1.36c0.16 0.14 0.56 0.28 0.77 0.28h1.7c1.48 0 2.68 1.2 2.68 2.68v1.7c0 0.21 0.15 0.61 0.29 0.77l1.36 1.58c0.84 0.98 0.84 2.51 0 3.49l-1.36 1.58c-0.14 0.16-0.29 0.56-0.29 0.77v1.7c0 1.48-1.2 2.68-2.68 2.68h-1.7c-0.21 0-0.61 0.15-0.77 0.28l-1.58 1.36c-0.49 0.43-1.12 0.64-1.75 0.64zm-5.82-17.73c-0.65 0-1.18 0.53-1.18 1.18v1.71c0 0.57-0.27 1.3-0.64 1.73l-1.35 1.59c-0.35 0.41-0.35 1.12 0 1.53l1.35 1.59c0.37 0.44 0.64 1.16 0.64 1.73v1.71c0 0.65 0.53 1.18 1.18 1.18h1.73c0.58 0 1.31 0.27 1.75 0.65l1.58 1.36c0.41 0.35 1.13 0.35 1.54 0l1.58-1.36c0.44-0.37 1.17-0.65 1.75-0.65h1.7c0.65 0 1.18-0.53 1.18-1.18v-1.7c0-0.58 0.27-1.31 0.65-1.75l1.36-1.58c0.35-0.41 0.35-1.13 0-1.54l-1.36-1.58c-0.38-0.44-0.65-1.17-0.65-1.75v-1.69c0-0.65-0.53-1.18-1.18-1.18h-1.7c-0.58 0-1.31-0.27-1.75-0.65l-1.58-1.36c-0.41-0.35-1.13-0.35-1.54 0l-1.58 1.37c-0.44 0.37-1.18 0.64-1.75 0.64h-1.73z"/>
</svg>
